X:120
T:Moulin Dhu
D:Horses for Courses by the Riverside Ceilidh Band
Z:Nigel Gatherer
M:4/4
L:1/8
K:A
e>ee>e e>ee>e|e>ee>e c2 e2|e>ee>e f2 e>e|f2 e2 c2 B2|
A2 A2 F>EE>F|A2 A2 c2 B>c|A2 A2 F>E E2|c<ee>d c>B A2|]
c>ee>e e>ee>e|d>ff>f f>ga>f|c>ee>e e>ee>e|e>fe>d c2 B>c|
A2 A2 F>EE>F|A2 A2 c2 B>c|A2 A2 F>E E2|c<ee>d c>B A2|]
<end>
<start>
